X:1
T:Title
%%score 1 { 2 | 3 }
L:1/8
Q:1/4=93
M:3/4
K:C
V:1 treble nm="Grand Piano, Soprano"
V:2 treble nm="Choir Pad, Coimbra, D. B. Towner 1893"
V:3 bass 
V:1
 [EG]>[EG] [EG]2 [CE]2 | [Ec]>[FA] [EG]2 [CE]2 | [EG]>[Ec] [FB]3 [FB] | [FA]>[FG] [Ec]4 | %4
w: By~Daniel~Brink~Towner,~1893 * * *||||
 [EG]>[EG] [EG]2 [CE]2 | [Ec]>[FA] [EG]2 [CE]2 | [EG]>[Ec] [FB]3 [FB] | [FA]>[FG] [Ec]4 | %8
w: ||||
 [CE]>[CE] [CA]3 [CA] | [EB]>[EB] [Ec]>[DB] [CA]2 | [CE]>[CE] [B,F]3 [B,F] | [B,E]>[DE] [CE]4 | %12
w: ||||
 [FG]>[Ec] [Ge]3 [Ge] | [Gd]>[Gc] [FA]2 [Fc]2 | [_EB]A [=EG] [Gc]3 | [Gd]>[GB] [Gc]4- | [Gc]4 z2 |] %17
w: |||||
V:2
 C>C C2 G,2 | G,>C C2 G,2 | C>C D3 D | D>D C4 | C>C C2[K:bass] G,2 | G,>C C2 G,2 | C>C D3 D | %7
 D>D C4 | A,>A, A,3 A, | ^G,>G, A,2 A,2 | A,>A, ^G,3 G, | ^G,>G, A,4 | B,>[K:treble]C C3 C | %13
 B,>C C2 A,2 | A,C C E3 | F>D E4- | E4 z2 |] %17
V:3
 C,>C, C,2 C,2 | C,>C, C,2 C,2 | C,>C, G,3 G, | G,>G, C,4 | C,>C, C,2 C,2 | C,>C, C,2 C,2 | %6
 C,>C, G,3 G, | G,>G, C,4 | z6 | E,>E, A,,2 A,,2 | A,,>A,, D,3 D, | E,>E, z2 z2 | G,>C, C,3 C, | %13
 D,>E, F,2 F,2 | ^F,F, G, G,3 | G,>G, C,4- | C,4 z2 |] %17

